app/client/src/assets/icons/blueprintjs/20px/eye-on.svg

<svg xmlns="http://www.w3.org/2000/svg" xml:space="preserve" viewBox="0 0 20 20"><path fill-rule="evenodd" d="M13.3 8.71c.18.18.43.29.71.29s.53-.11.71-.29l4.99-5a1.003 1.003 0 0 0-1.42-1.42L14 6.58l-2.29-2.29a.956.956 0 0 0-.7-.29 1.003 1.003 0 0 0-.71 1.71l3 3zM20 9.96v-.08a.823.823 0 0 0-.21-.44c-.44-.55-.94-1.05-1.46-1.52l-2.2 2.2c-.55.54-1.3.88-2.12.88-.05 0-.09-.01-.14-.01a3.978 3.978 0 0 1-3.86 3.02 4.007 4.007 0 0 1-1.66-7.65A2.97 2.97 0 0 1 8.02 5c0-.28.05-.54.12-.8-1.05.22-2.07.64-3.02 1.15-1.57.85-3 2.02-4.24 3.33-.23.25-.46.5-.67.76-.28.35-.28.77 0 1.12.64.8 1.4 1.52 2.17 2.17 1.66 1.41 3.56 2.58 5.66 3.06 1.21.27 2.43.29 3.65.05 1.11-.21 2.18-.65 3.18-1.19 1.57-.85 3-2.02 4.24-3.33.23-.24.46-.49.67-.76.11-.12.18-.27.21-.44V10c.01-.01.01-.03.01-.04zm-9.99 2.05c1.03 0 1.87-.79 1.98-1.8l-.09-.09-.01.01-2.1-2.11c-1 .11-1.77.95-1.77 1.98-.01 1.11.89 2.01 1.99 2.01z" clip-rule="evenodd"/></svg>

<?xml version="1.0" encoding="utf-8"?>
<!-- Generator: Adobe Illustrator 18.0.0, SVG Export Plug-In . SVG Version: 6.00 Build 0)  -->
<svg version="1.1" id="Layer_1" xmlns="http://www.w3.org/2000/svg" xmlns:xlink="http://www.w3.org/1999/xlink" x="0px" y="0px"
	 viewBox="0 0 20 20" enable-background="new 0 0 20 20" xml:space="preserve">
<g id="eye_on_3_">
	<g>
		<path fill-rule="evenodd" clip-rule="evenodd" d="M13.3,8.71C13.48,8.89,13.73,9,14.01,9s0.53-0.11,0.71-0.29l4.99-5
			C19.88,3.53,20,3.28,20,3c0-0.55-0.45-1-1-1c-0.28,0-0.53,0.11-0.71,0.29l-4.29,4.29l-2.29-2.29C11.54,4.11,11.29,4,11.01,4
			c-0.55,0-1,0.45-1,1c0,0.28,0.11,0.53,0.29,0.71L13.3,8.71z M20,9.96c0-0.01,0-0.02,0-0.03c0,0,0-0.01,0-0.01
			c0-0.01,0-0.01,0-0.02c0-0.01,0-0.01,0-0.02c0,0,0,0,0,0c-0.02-0.16-0.1-0.32-0.21-0.44c-0.44-0.55-0.94-1.05-1.46-1.52l-2.2,2.2
			C15.58,10.66,14.83,11,14.01,11c-0.05,0-0.09-0.01-0.14-0.01c-0.44,1.74-1.99,3.02-3.86,3.02c-2.21,0-4-1.8-4-4.01
			c0-1.62,0.96-3.01,2.34-3.64C8.14,5.95,8.02,5.49,8.02,5c0-0.28,0.05-0.54,0.12-0.8C7.09,4.42,6.07,4.84,5.12,5.35
			c-1.57,0.85-3,2.02-4.24,3.33C0.65,8.93,0.42,9.18,0.21,9.44c-0.28,0.35-0.28,0.77,0,1.12c0.64,0.8,1.4,1.52,2.17,2.17
			c1.66,1.41,3.56,2.58,5.66,3.06c1.21,0.27,2.43,0.29,3.65,0.05c1.11-0.21,2.18-0.65,3.18-1.19c1.57-0.85,3-2.02,4.24-3.33
			c0.23-0.24,0.46-0.49,0.67-0.76c0.11-0.12,0.18-0.27,0.21-0.44c0,0,0,0,0,0c0-0.01,0-0.01,0-0.02c0-0.01,0-0.01,0-0.02
			c0,0,0-0.01,0-0.01c0-0.01,0-0.02,0-0.03c0-0.01,0-0.03,0-0.04C20,9.99,20,9.97,20,9.96z M10.01,12.01c1.03,0,1.87-0.79,1.98-1.8
			c-0.03-0.03-0.06-0.06-0.09-0.09l-0.01,0.01l-2.1-2.11c-1,0.11-1.77,0.95-1.77,1.98C8.01,11.11,8.91,12.01,10.01,12.01z"/>
	</g>
</g>
</svg>
